src/svg/argo-hero.svg

<svg fill="none" height="527" viewBox="0 0 304 527" width="304" xmlns="http://www.w3.org/2000/svg" xmlns:xlink="http://www.w3.org/1999/xlink"><linearGradient id="a"><stop offset="0" stop-color="#eb5795"/><stop offset="1" stop-color="#eb5795" stop-opacity="0"/></linearGradient><linearGradient id="b" gradientUnits="userSpaceOnUse" x1="14.3033" x2="14.3033" xlink:href="#a" y1="353.83" y2="460.373"/><linearGradient id="c" gradientUnits="userSpaceOnUse" x1="293.809" x2="293.809" xlink:href="#a" y1="355.974" y2="462.517"/><linearGradient id="d"><stop offset="0" stop-color="#5e6294"/><stop offset="1" stop-color="#5e6294" stop-opacity="0"/></linearGradient><linearGradient id="e" gradientUnits="userSpaceOnUse" x1="56.0414" x2="56.0414" xlink:href="#d" y1="309.346" y2="404.74"/><linearGradient id="f" gradientUnits="userSpaceOnUse" x1="252.071" x2="252.071" xlink:href="#d" y1="311.49" y2="406.884"/><linearGradient id="g" gradientUnits="userSpaceOnUse" x1="69.2223" x2="69.2223" xlink:href="#d" y1="423.303" y2="478.949"/><linearGradient id="h" gradientUnits="userSpaceOnUse" x1="238.89" x2="238.89" xlink:href="#d" y1="425.447" y2="481.093"/><linearGradient id="i" gradientUnits="userSpaceOnUse" x1="207.792" x2="207.792" xlink:href="#a" y1="-213.909" y2="515.808"/><linearGradient id="j" gradientUnits="userSpaceOnUse" x1="152.596" x2="152.596" xlink:href="#a" y1="253.829" y2="462.285"/><linearGradient id="k" gradientUnits="userSpaceOnUse" x1="164.596" x2="164.596" xlink:href="#a" y1="220.454" y2="431.422"/><linearGradient id="l" gradientUnits="userSpaceOnUse" x1="140.596" x2="140.596" xlink:href="#a" y1="202.045" y2="410.502"/><linearGradient id="m" gradientUnits="userSpaceOnUse" x1="151.58" x2="215.287" y1="34.8125" y2="253.731"><stop offset="0" stop-color="#5e6294"/><stop offset="1" stop-color="#878bb2"/></linearGradient><g stroke-linecap="round"><path d="m14.3033 363.716v87.87" opacity=".9" stroke="url(#b)" stroke-width="12.0822"/><path d="m293.809 365.859v87.871" opacity=".9" stroke="url(#c)" stroke-width="12.0822"/><path d="m56.0414 319.231v79.084" opacity=".5" stroke="url(#e)" stroke-width="6.59026"/><path d="m252.071 321.375v79.084" opacity=".5" stroke="url(#f)" stroke-width="12.0822"/><path d="m69.2223 429.069v46.132" opacity=".5" stroke="url(#g)" stroke-width="12.0822"/><path d="m238.89 431.213v46.132" opacity=".5" stroke="url(#h)" stroke-width="6.59026"/></g><circle cx="223.957" cy="329.482" fill="#cc4f83" r="2.74594"/><circle cx="30.2302" cy="321.977" fill="#5e6294" r="2.74594"/><circle cx="43.4105" cy="409.848" fill="#cc4f83" r="2.74594"/><circle cx="265.801" cy="420.778" fill="#5e6294" r="2.74594"/><circle cx="299.85" cy="340.597" fill="#5e6294" r="2.74594"/><path clip-rule="evenodd" d="m94.5335 526.426v-375.17h113.2585v375.17z" fill="url(#i)" fill-rule="evenodd" opacity=".9"/><path d="m152.596 273.17v171.923" opacity=".9" stroke="url(#j)" stroke-linecap="round" stroke-width="12"/><path d="m164.596 240.029v173.994" opacity=".9" stroke="url(#k)" stroke-linecap="round" stroke-width="12"/><path d="m140.596 221.387v171.922" opacity=".9" stroke="url(#l)" stroke-linecap="round" stroke-width="12"/><circle cx="151.58" cy="145.778" fill="url(#m)" opacity=".2" r="110.965"/><path clip-rule="evenodd" d="m151.58 284.303c76.505 0 138.525-62.02 138.525-138.525 0-76.5053-62.02-138.52507-138.525-138.52507-76.5056 0-138.5253 62.01977-138.5253 138.52507 0 76.505 62.0197 138.525 138.5253 138.525zm0-27.56c61.284 0 110.965-49.681 110.965-110.965 0-61.2844-49.681-110.9652-110.965-110.9652-61.2846 0-110.9653 49.6808-110.9653 110.9652 0 61.284 49.6807 110.965 110.9653 110.965z" fill="#5e6294" fill-rule="evenodd" opacity=".14"/><path d="m88.1706 203.918c-15.1789-6.575-25.7981-21.689-25.7981-39.284 0-16.452 9.2841-30.735 22.8988-37.896-.944-37.611 29.2987-68.7175 67.0337-68.7175s67.978 31.1066 67.034 68.7175c13.614 7.161 22.898 21.444 22.898 37.896 0 17.595-10.619 32.709-25.798 39.284l-2.477 65.83c.709 17.04 5.847 18.453 25.176 23.768 1.865.513 3.862 1.062 6 1.665-15.921 3.639-25.922 4.14-32.218 2.24l-1.144 30.397c-2.553 28.73-2.297 28.797 17.096 33.844 2.636.686 5.627 1.464 9.013 2.419-41.756 9.544-42.3-9.368-42.791-26.471-.098-3.417-.195-6.761-.617-9.792h-1.556c-.093 1.151-.185 2.268-.273 3.354l-.002.027c-1.948 23.92-2.617 32.129 1.139 35.75 1.962 1.892 5.132 2.53 9.959 3.503 5.047 1.016 11.905 2.398 21.087 5.958-49.237 6.856-49.199-8.783-49.135-35.41.01-4.143.02-8.551-.154-13.182h-1.478c-2.282 51.329.37 51.979 17.83 56.263 4.743 1.163 10.579 2.595 17.707 5.384-50.176 5.575-52.184-8.683-55.276-30.648-.548-3.891-1.13-8.024-2.02-12.332-.89 4.308-1.472 8.44-2.02 12.331-3.093 21.965-5.1 36.224-55.2757 30.649 7.1277-2.789 12.9637-4.221 17.7067-5.384 17.46-4.284 20.112-4.934 17.83-56.263h-1.478c-.174 4.631-.164 9.039-.154 13.182.064 26.627.102 42.266-49.1352 35.41 9.1819-3.56 16.0399-4.942 21.0872-5.958 4.827-.973 7.997-1.611 9.959-3.503 3.756-3.621 3.087-11.83 1.139-35.75-.089-1.093-.181-2.22-.275-3.381h-1.556c-.422 3.031-.519 6.375-.617 9.792-.491 17.103-1.035 36.015-42.7907 26.471 3.3855-.955 6.3761-1.733 9.013-2.419 19.3926-5.047 19.649-5.114 17.0952-33.844l-1.144-30.397c-6.2952 1.9-16.2963 1.399-32.2181-2.24 2.1382-.603 4.1354-1.152 6.0006-1.665 19.3291-5.315 24.4667-6.728 25.176-23.768z" fill="#ef7b4d"/><circle cx="102.987" cy="165.36" fill="#fefefe" r="31.9115"/><circle cx="102.262" cy="160.282" fill="#000" r="10.8789"/><circle cx="197.271" cy="165.36" fill="#fefefe" r="31.9115"/><circle cx="196.546" cy="160.282" fill="#000" r="10.8789"/><path d="m127.646 224.831s11.604 11.604 24.659 11.604 24.659-11.604 24.659-11.604v14.505c0 13.619-11.04 24.659-24.659 24.659-13.619 0-24.659-11.04-24.659-24.659z" fill="#fafafa"/><path d="m127.646 236.435s11.604 11.604 24.659 11.604 24.659-11.604 24.659-11.604v2.901c0 13.619-11.04 24.659-24.659 24.659-13.619 0-24.659-11.04-24.659-24.659z" fill="#202124"/><path d="m59.4453 215.163c-14.4242-19.164-23.0149-42.976-23.1213-68.806-.1714-41.626 21.7345-78.1924 54.7143-98.6031" opacity=".16" stroke="#5e6294" stroke-linecap="round" stroke-width="8.70314"/><circle cx="105.888" cy="37.7137" fill="#5e6294" opacity=".45" r="5.80209"/><rect fill="#5e6294" height="66.7241" rx="5.80209" width="13.0547" y="113.141"/><rect fill="#5e6294" height="66.7241" rx="5.80209" width="13.0547" x="290.105" y="113.141"/><path clip-rule="evenodd" d="m151.58 291.555c80.511 0 145.777-65.267 145.777-145.777 0-80.5111-65.266-145.778-145.777-145.778s-145.77788 65.2669-145.77788 145.778c0 80.51 65.26688 145.777 145.77788 145.777zm0-7.252c76.505 0 138.525-62.02 138.525-138.525 0-76.5055-62.02-138.52525-138.525-138.52525-76.5056 0-138.5253 62.01975-138.5253 138.52525 0 76.505 62.0197 138.525 138.5253 138.525z" fill="#5e6294" fill-opacity=".2" fill-rule="evenodd"/><path d="m136.997 90.7907c-1.458 6.8223-7.382 11.3393-13.232 10.0893-5.851-1.2502-9.602-6.7115-8.144-13.5338 1.458-6.8222 10.374-14.0697 16.224-12.8196 5.851 1.2502 6.61 9.4419 5.152 16.2641z" fill="#f77f4f"/></svg>

<svg id="argoHero" width="304" height="527" viewBox="0 0 304 527" fill="none" xmlns="http://www.w3.org/2000/svg">
<path class="argoel" opacity="0.9" d="M14.3033 363.716L14.3033 451.586" stroke="url(#paint0_linear)" stroke-width="12.0822" stroke-linecap="round"/>
<path class="argoel" opacity="0.9" d="M293.809 365.859L293.809 453.73" stroke="url(#paint1_linear)" stroke-width="12.0822" stroke-linecap="round"/>
<path class="argoel" opacity="0.5" d="M56.0414 319.231L56.0414 398.315" stroke="url(#paint2_linear)" stroke-width="6.59026" stroke-linecap="round"/>
<path class="argoel" opacity="0.5" d="M252.071 321.375L252.071 400.459" stroke="url(#paint3_linear)" stroke-width="12.0822" stroke-linecap="round"/>
<path class="argoel" opacity="0.5" d="M69.2223 429.069L69.2223 475.201" stroke="url(#paint4_linear)" stroke-width="12.0822" stroke-linecap="round"/>
<path class="argoel" opacity="0.5" d="M238.89 431.213L238.89 477.345" stroke="url(#paint5_linear)" stroke-width="6.59026" stroke-linecap="round"/>
<circle class="argoel" cx="223.957" cy="329.482" r="2.74594" fill="#CC4F83"/>
<circle class="argoel" cx="30.2302" cy="321.977" r="2.74594" fill="#5E6294"/>
<circle class="argoel" cx="43.4105" cy="409.848" r="2.74594" fill="#CC4F83"/>
<circle class="argoel" cx="265.801" cy="420.778" r="2.74594" fill="#5E6294"/>
<circle class="argoel" cx="299.85" cy="340.597" r="2.74594" fill="#5E6294"/>
<path opacity="0.9" fill-rule="evenodd" clip-rule="evenodd" d="M94.5335 526.426L94.5335 151.256L207.792 151.256L207.792 526.426L94.5335 526.426Z" fill="url(#paint6_linear)"/>
<path class="argoel" opacity="0.9" d="M152.596 273.17L152.596 445.093" stroke="url(#paint7_linear)" stroke-width="12" stroke-linecap="round"/>
<path class="argoel" opacity="0.9" d="M164.596 240.029L164.596 414.023" stroke="url(#paint8_linear)" stroke-width="12" stroke-linecap="round"/>
<path class="argoel" opacity="0.9" d="M140.596 221.387L140.596 393.309" stroke="url(#paint9_linear)" stroke-width="12" stroke-linecap="round"/>
<circle opacity="0.2" cx="151.58" cy="145.778" r="110.965" fill="url(#paint10_linear)"/>
<path opacity="0.14" fill-rule="evenodd" clip-rule="evenodd" d="M151.58 284.303C228.085 284.303 290.105 222.283 290.105 145.778C290.105 69.2727 228.085 7.25293 151.58 7.25293C75.0744 7.25293 13.0547 69.2727 13.0547 145.778C13.0547 222.283 75.0744 284.303 151.58 284.303ZM151.58 256.743C212.864 256.743 262.545 207.062 262.545 145.778C262.545 84.4936 212.864 34.8128 151.58 34.8128C90.2954 34.8128 40.6147 84.4936 40.6147 145.778C40.6147 207.062 90.2954 256.743 151.58 256.743Z" fill="#5E6294"/>
<path d="M88.1706 203.918C72.9917 197.343 62.3725 182.229 62.3725 164.634C62.3725 148.182 71.6566 133.899 85.2713 126.738C84.3273 89.127 114.57 58.0205 152.305 58.0205C190.04 58.0205 220.283 89.1271 219.339 126.738C232.953 133.899 242.237 148.182 242.237 164.634C242.237 182.229 231.618 197.343 216.439 203.918L213.962 269.748C214.671 286.788 219.809 288.201 239.138 293.516C241.003 294.029 243 294.578 245.138 295.181C229.217 298.82 219.216 299.321 212.92 297.421L211.776 327.818C209.223 356.548 209.479 356.615 228.872 361.662C231.508 362.348 234.499 363.126 237.885 364.081C196.129 373.625 195.585 354.713 195.094 337.61C194.996 334.193 194.899 330.849 194.477 327.818H192.921C192.828 328.969 192.736 330.086 192.648 331.172L192.646 331.199C190.698 355.119 190.029 363.328 193.785 366.949C195.747 368.841 198.917 369.479 203.744 370.452C208.791 371.468 215.649 372.85 224.831 376.41C175.594 383.266 175.632 367.627 175.696 341C175.706 336.857 175.716 332.449 175.542 327.818H174.064C171.782 379.147 174.434 379.797 191.894 384.081C196.637 385.244 202.473 386.676 209.601 389.465C159.425 395.04 157.417 380.782 154.325 358.817C153.777 354.926 153.195 350.793 152.305 346.485C151.415 350.793 150.833 354.925 150.285 358.816C147.192 380.781 145.185 395.04 95.0093 389.465C102.137 386.676 107.973 385.244 112.716 384.081C130.176 379.797 132.828 379.147 130.546 327.818H129.068C128.894 332.449 128.904 336.857 128.914 341C128.978 367.627 129.016 383.266 79.7788 376.41C88.9607 372.85 95.8187 371.468 100.866 370.452C105.693 369.479 108.863 368.841 110.825 366.949C114.581 363.328 113.912 355.119 111.964 331.199C111.875 330.106 111.783 328.979 111.689 327.818H110.133C109.711 330.849 109.614 334.193 109.516 337.61C109.025 354.713 108.481 373.625 66.7253 364.081C70.1108 363.126 73.1014 362.348 75.7383 361.662C95.1309 356.615 95.3873 356.548 92.8335 327.818L91.6895 297.421C85.3943 299.321 75.3932 298.82 59.4714 295.181C61.6096 294.578 63.6068 294.029 65.472 293.516C84.8011 288.201 89.9387 286.788 90.648 269.748L88.1706 203.918Z" fill="#EF7B4D"/>
<circle cx="102.987" cy="165.36" r="31.9115" fill="#FEFEFE"/>
<circle cx="102.262" cy="160.282" r="10.8789" fill="black"/>
<circle cx="197.271" cy="165.36" r="31.9115" fill="#FEFEFE"/>
<circle cx="196.546" cy="160.282" r="10.8789" fill="black"/>
<path d="M127.646 224.831C127.646 224.831 139.25 236.435 152.305 236.435C165.36 236.435 176.964 224.831 176.964 224.831V239.336C176.964 252.955 165.924 263.995 152.305 263.995V263.995C138.686 263.995 127.646 252.955 127.646 239.336V224.831Z" fill="#FAFAFA"/>
<path d="M127.646 236.435C127.646 236.435 139.25 248.039 152.305 248.039C165.36 248.039 176.964 236.435 176.964 236.435V239.336C176.964 252.955 165.924 263.995 152.305 263.995V263.995C138.686 263.995 127.646 252.955 127.646 239.336V236.435Z" fill="#202124"/>
<path opacity="0.16" d="M59.4453 215.163C45.0211 195.999 36.4304 172.187 36.324 146.357C36.1526 104.731 58.0585 68.1646 91.0383 47.7539" stroke="#5E6294" stroke-width="8.70314" stroke-linecap="round"/>
<circle opacity="0.45" cx="105.888" cy="37.7137" r="5.80209" fill="#5E6294"/>
<rect y="113.141" width="13.0547" height="66.7241" rx="5.80209" fill="#5E6294"/>
<rect x="290.105" y="113.141" width="13.0547" height="66.7241" rx="5.80209" fill="#5E6294"/>
<path fill-rule="evenodd" clip-rule="evenodd" d="M151.58 291.555C232.091 291.555 297.357 226.288 297.357 145.778C297.357 65.2669 232.091 0 151.58 0C71.069 0 5.80212 65.2669 5.80212 145.778C5.80212 226.288 71.069 291.555 151.58 291.555ZM151.58 284.303C228.085 284.303 290.105 222.283 290.105 145.778C290.105 69.2725 228.085 7.25275 151.58 7.25275C75.0744 7.25275 13.0547 69.2725 13.0547 145.778C13.0547 222.283 75.0744 284.303 151.58 284.303Z" fill="#5E6294" fill-opacity="0.2"/>
<path d="M136.997 90.7907C135.539 97.613 129.615 102.13 123.765 100.88C117.914 99.6298 114.163 94.1685 115.621 87.3462C117.079 80.524 125.995 73.2765 131.845 74.5266C137.696 75.7768 138.455 83.9685 136.997 90.7907Z" fill="#F77F4F"/>
<defs>
<linearGradient id="paint0_linear" x1="14.3033" y1="353.83" x2="14.3033" y2="460.373" gradientUnits="userSpaceOnUse">
<stop stop-color="#EB5795"/>
<stop offset="1" stop-color="#EB5795" stop-opacity="0"/>
</linearGradient>
<linearGradient id="paint1_linear" x1="293.809" y1="355.974" x2="293.809" y2="462.517" gradientUnits="userSpaceOnUse">
<stop stop-color="#EB5795"/>
<stop offset="1" stop-color="#EB5795" stop-opacity="0"/>
</linearGradient>
<linearGradient id="paint2_linear" x1="56.0414" y1="309.346" x2="56.0414" y2="404.74" gradientUnits="userSpaceOnUse">
<stop stop-color="#5E6294"/>
<stop offset="1" stop-color="#5E6294" stop-opacity="0"/>
</linearGradient>
<linearGradient id="paint3_linear" x1="252.071" y1="311.49" x2="252.071" y2="406.884" gradientUnits="userSpaceOnUse">
<stop stop-color="#5E6294"/>
<stop offset="1" stop-color="#5E6294" stop-opacity="0"/>
</linearGradient>
<linearGradient id="paint4_linear" x1="69.2223" y1="423.303" x2="69.2223" y2="478.949" gradientUnits="userSpaceOnUse">
<stop stop-color="#5E6294"/>
<stop offset="1" stop-color="#5E6294" stop-opacity="0"/>
</linearGradient>
<linearGradient id="paint5_linear" x1="238.89" y1="425.447" x2="238.89" y2="481.093" gradientUnits="userSpaceOnUse">
<stop stop-color="#5E6294"/>
<stop offset="1" stop-color="#5E6294" stop-opacity="0"/>
</linearGradient>
<linearGradient id="paint6_linear" x1="207.792" y1="-213.909" x2="207.792" y2="515.808" gradientUnits="userSpaceOnUse">
<stop stop-color="#EB5795"/>
<stop offset="1" stop-color="#EB5795" stop-opacity="0"/>
</linearGradient>
<linearGradient id="paint7_linear" x1="152.596" y1="253.829" x2="152.596" y2="462.285" gradientUnits="userSpaceOnUse">
<stop stop-color="#EB5795"/>
<stop offset="1" stop-color="#EB5795" stop-opacity="0"/>
</linearGradient>
<linearGradient id="paint8_linear" x1="164.596" y1="220.454" x2="164.596" y2="431.422" gradientUnits="userSpaceOnUse">
<stop stop-color="#EB5795"/>
<stop offset="1" stop-color="#EB5795" stop-opacity="0"/>
</linearGradient>
<linearGradient id="paint9_linear" x1="140.596" y1="202.045" x2="140.596" y2="410.502" gradientUnits="userSpaceOnUse">
<stop stop-color="#EB5795"/>
<stop offset="1" stop-color="#EB5795" stop-opacity="0"/>
</linearGradient>
<linearGradient id="paint10_linear" x1="151.58" y1="34.8125" x2="215.287" y2="253.731" gradientUnits="userSpaceOnUse">
<stop stop-color="#5E6294"/>
<stop offset="1" stop-color="#878BB2"/>
</linearGradient>
</defs>
</svg>
